X:405
%%etbk:tnset id:119,pos:1,rep:3x,ant:
%%etbk:pldat 2016-07-26T15:31,2014-09-25T18:11,2013-05-21T15:45
T: Gan Ainm
Z: Piano Box Version by Martin Fleischmann
H: Created 2013-02-19 /  Last Modified 2013-02-19
S: Dieter Sieber
M: 2/4
L: 1/8
R: polka
K: Dmaj
|: "D"!3!dc/d/ ed | "A"!2!c!4!e !1!A!2!F | "G"!3!GF/G/ AG | "D"!2!F!4!A !1!DF | "G"!3!G!1!E !4!AG | "D"!2!F!3!A !5!d>!3!f | "A"!4!g!1!e !2!c!4!e | "D"!3!d2 d2 :|
|: "D"!1!d>e !3!f!5!a | !4!gf e!1!d | "A"!3!c/B/!1!A !5!e!1!A | !2!e/f/e/!1!d/ !3!c!1!A | "D"!3!d>!4!e !3!f!5!a | !4!gf e!1!d | "A"!3!c!1!A Bc | "D"!4!d2 d2 :|


